pro/src/icons/stroke-near.svg

<svg width="48" height="48" viewBox="0 0 48 48" fill="none" xmlns="http://www.w3.org/2000/svg">
<path id="icon" fill-rule="evenodd" clip-rule="evenodd" d="M22.0005 2.95459C11.4801 2.95459 2.95508 11.4796 2.95508 22C2.95508 32.5205 11.4801 41.0455 22.0005 41.0455C32.521 41.0455 41.046 32.5205 41.046 22C41.046 16.7395 38.9158 11.9795 35.4684 8.53215C35.0779 8.14163 35.0779 7.50846 35.4684 7.11794C35.859 6.72741 36.4921 6.72741 36.8826 7.11794C40.6898 10.9251 43.046 16.1879 43.046 22C43.046 33.6251 33.6255 43.0455 22.0005 43.0455C10.3755 43.0455 0.955078 33.6251 0.955078 22C0.955078 10.375 10.3755 0.95459 22.0005 0.95459C22.5528 0.95459 23.0005 1.40231 23.0005 1.95459C23.0005 2.50687 22.5528 2.95459 22.0005 2.95459ZM18.4504 18.4498C20.4081 16.4922 23.5835 16.4922 25.5412 18.4498C25.9317 18.8403 26.5649 18.8403 26.9554 18.4498C27.3459 18.0593 27.3459 17.4261 26.9554 17.0356C24.2167 14.2969 19.7749 14.2969 17.0362 17.0356C14.2975 19.7743 14.2975 24.2161 17.0362 26.9548C19.7749 29.6935 24.2167 29.6935 26.9554 26.9548C27.3459 26.5643 27.3459 25.9311 26.9554 25.5406C26.5649 25.1501 25.9317 25.1501 25.5412 25.5406C23.5835 27.4983 20.4081 27.4983 18.4504 25.5406C16.4928 23.5829 16.4928 20.4075 18.4504 18.4498ZM23.4322 22.0001C23.4322 22.7908 22.7912 23.4319 22.0004 23.4319C21.2097 23.4319 20.5686 22.7908 20.5686 22.0001C20.5686 21.2093 21.2097 20.5682 22.0004 20.5682C22.7912 20.5682 23.4322 21.2093 23.4322 22.0001ZM9.97095 22.0002C9.97095 15.3553 15.3555 9.9707 22.0005 9.9707C28.6455 9.9707 34.03 15.3553 34.03 22.0002C34.03 28.6452 28.6455 34.0298 22.0005 34.0298C18.6783 34.0298 15.6745 32.6828 13.4962 30.5045C13.1057 30.114 12.4725 30.114 12.082 30.5045C11.6915 30.895 11.6915 31.5282 12.082 31.9187C14.6192 34.4559 18.1254 36.0298 22.0005 36.0298C29.75 36.0298 36.03 29.7498 36.03 22.0002C36.03 14.2507 29.75 7.9707 22.0005 7.9707C14.2509 7.9707 7.97095 14.2507 7.97095 22.0002C7.97095 22.5525 8.41866 23.0002 8.97095 23.0002C9.52323 23.0002 9.97095 22.5525 9.97095 22.0002Z" fill="currentColor"/>
</svg>

<svg xmlns="http://www.w3.org/2000/svg" width="48" height="48" fill="none"><path id="icon" fill="currentColor" fill-rule="evenodd" d="M22 2.955C11.48 2.955 2.955 11.48 2.955 22S11.48 41.045 22 41.045 41.046 32.52 41.046 22c0-5.26-2.13-10.02-5.578-13.468a1 1 0 0 1 1.415-1.414A20.98 20.98 0 0 1 43.046 22c0 11.625-9.42 21.045-21.045 21.045S.954 33.625.954 22 10.375.955 22.001.955a1 1 0 1 1 0 2M18.45 18.45a5.015 5.015 0 0 1 7.091 0 1 1 0 0 0 1.414-1.414 7.015 7.015 0 1 0 0 9.919 1 1 0 0 0-1.414-1.414 5.015 5.015 0 0 1-7.09-7.091M23.432 22a1.432 1.432 0 1 1-2.863 0 1.432 1.432 0 0 1 2.863 0M9.971 22c0-6.645 5.384-12.03 12.03-12.03 6.644 0 12.029 5.385 12.029 12.03S28.645 34.03 22 34.03a11.99 11.99 0 0 1-8.504-3.526 1 1 0 0 0-1.414 1.415A13.99 13.99 0 0 0 22 36.029c7.75 0 14.03-6.28 14.03-14.029 0-7.75-6.28-14.03-14.03-14.03S7.97 14.25 7.97 22a1 1 0 1 0 2.001 0" clip-rule="evenodd"/></svg>
